src/icons/svg/SqlRunner.svg

<svg width="24" height="24" viewBox="0 0 24 24" fill="none" xmlns="http://www.w3.org/2000/svg">
<path d="M15.073 11.172C15.934 10.485 16.497 9.44001 16.497 8.25101C16.497 6.43701 15.208 4.92401 13.5 4.57801V1.50101H12.002V4.57801C10.293 4.92401 9.00697 6.43801 9.00697 8.25101C9.00697 9.43901 9.56997 10.484 10.429 11.172L7.32497 16.218C5.30397 14.875 3.75797 12.877 3.04797 10.501H1.49597C2.24997 13.417 4.09397 15.872 6.54497 17.49L3.00897 23.242L4.28397 23.994L7.82597 18.233C9.43097 19.027 11.226 19.502 13.141 19.502C14.819 19.502 16.404 19.141 17.854 18.521L21.22 23.995L22.495 23.243L15.074 11.173L15.073 11.172ZM12.75 6.00201C13.992 6.00201 14.997 7.01001 14.997 8.25201C14.997 9.49401 13.992 10.502 12.75 10.502C11.509 10.502 10.503 9.49401 10.503 8.25201C10.503 7.01001 11.511 6.00201 12.75 6.00201V6.00201ZM13.14 18.002C11.514 18.002 9.98497 17.61 8.60997 16.955L11.748 11.85C12.069 11.938 12.402 12.002 12.75 12.002C13.1 12.002 13.431 11.939 13.75 11.849L17.061 17.233C15.849 17.722 14.532 18.003 13.14 18.003V18.002Z" fill="#1C2125"/>
</svg>

<!-- Generated by IcoMoon.io -->
<svg version="1.1" xmlns="http://www.w3.org/2000/svg" width="24" height="24" viewBox="0 0 24 24">
<title>sql-runner</title>
<path fill="#444" d="M15.073 11.172c0.861-0.687 1.424-1.732 1.424-2.921 0-1.814-1.289-3.327-2.997-3.673v-3.077h-1.498v3.077c-1.709 0.346-2.995 1.86-2.995 3.673 0 1.188 0.563 2.233 1.422 2.921l-3.104 5.046c-2.021-1.343-3.567-3.341-4.277-5.717h-1.552c0.754 2.916 2.598 5.371 5.049 6.989l-3.536 5.752 1.275 0.752 3.542-5.761c1.605 0.794 3.4 1.269 5.315 1.269 1.678 0 3.263-0.361 4.713-0.981l3.366 5.474 1.275-0.752-7.421-12.070zM12.75 6.002c1.242 0 2.247 1.008 2.247 2.25s-1.005 2.25-2.247 2.25c-1.241 0-2.247-1.008-2.247-2.25s1.008-2.25 2.247-2.25zM13.14 18.002c-1.626 0-3.155-0.392-4.53-1.047l3.138-5.105c0.321 0.088 0.654 0.152 1.002 0.152 0.35 0 0.681-0.063 1-0.153l3.311 5.384c-1.212 0.489-2.529 0.77-3.921 0.77z"></path>
</svg>
